X:1
T:Old Joe Clark
L:1/4
M:4/4
I:linebreak $
K:A
V:1 treble
V:1
"A" e f =g f | e d c2 | e f =g f |"E" e2 e2 |$
"A" e f =g f | e d c2 | A c "E"B B |"A" A2 A2 |$
"A" A2 A2 | e d c2 | A A B A |"E" E2 E2 |$
"A" A2 A2 | e d c2 | A c "E"B B |"A" A2 A2 |]
